X:16400
T:Ternberger Hochzeitsstckln III
N:2. terzparalelle Stimme eine Terz tiefer.
B:"Wer tanzt nach meiner Pfeife", Sepp Pichler, Steirisches Volksliedwerk, Graz o.J.. 
N:in the book in F, in the source in D
S:"Bauernmusi", sterreichische Volksmusik, 2.Teil, R.Zoder und R.Preiss,1925
A:Thernberg, um 1800
Z:abc transcription Simon Wascher
N:please mail errors to: simon.wascher@chello.at
M:2/4
L:1/16
K:G
dedc BcdB|cdcB ABcA|B2(BA) G2(FG)|
ABAG F2D2|dedc BcdB|
cdcB ABcA|B2AG FGAF|G2B2G4:|
|:D2B2 D2B2|c2(cB)c4|B2(BA) G2(FG)|A2(AG) F2D2|
D2B2 D2B2|c2(cB)c4|B2(AG) FGAF|G2B2G4:|
|:(d3c) B2d2|{A}c2A2 .A2.G2|d3c B2d2|{A}c2A2 A2G2|
"_"B4"_"A2"_"B2|"_"c4"_"B2"_"c2|"_"d4"_"c2"_"B2|A8:|
|:A3B c2A2|(BA)Bc .d2.B2|(A^G)AB .c2.A2|(BA)Bc .d2.B2|
"_"e4"_"d2"_"c2|"_"d4"_"e2"_"c2|.B2.B2 (AG).A.B|G8:|
